!!!OTL: ES LEUCHTEN DREI STERN UEBER EIN KOENIGSHAUS
!!!ARE: Europa, Mitteleuropa, Deutschland, Westfalen
!!!SCT: Z0013
!!!YEM: Copyright 1995, estate of Helmut Schaffrath.
**kern
*ICvox
*Ivox
*M3/8
*k[]
*C:
{8G
=1
8.c
16B
8c
=2
8.d
16c
8d
=3
8.e
16d
16e
16f
=4
4g}
{8G
=5
8A
8f
8e
=6
8.d
16c
8d
=7
4.e
=8
4r}
{8G
=9
8.c
16B
8c
=10
8.d
16c
8d
=11
8.e
16d
16e
16f
=12
4g}
{8G
=13
8A
8f
8e
=14
8.d
16c
8d
=15
4.e
=16
4r}
{16c
16d
=17
8e
16e
16d
16e
16f
=18
8e
8f
8g
=19
8g
8f
8e
=20
4d}
{16B
16c
=21
8.d
16c
16d
16e
=22
8d
8e
8f
=23
4e
8d
=24
4c
8r}
=25
{8.e
16f
16e
16d
=26
8c
8B
8c
=27
4.d
=28
4c}
==
!!!AGN: Sagen - Lied, Romanze, Tod
!!!ONB: ESAC (Essen Associative Code) Database: ZUCCAL
!!!AMT: simple triple
!!!AIN: vox
!!!EED: Helmut Schaffrath
!!!EEV: 1.0
*-
